X: 7
T: The Acrobat
R: hornpipe
M: 4/4
L: 1/8
K: Dmaj
K:Bb, F
M:4/4
L:1/8
|:FE|DF Bc dB gf|((3ecA) ((3ecA) a3g|f=e _ec Aa gf|=ef gf dB FE|
DF Bc dB gf|((3ecA) ((3ecA) a3g|f=e _ec Aa gA|B2d2 B2:|
K:F
|:cB|Acdc af ef|dB df bg ^fg|ec =Bc d2 e2|((3fag) ((3fed) c2cB|
Ac dc af ef|dB df bg ^fg|ec =Bc d2 e2|f2a2 f2:|


Tune 3459	Setting 3459

